X:1667
T:The Dragoon and the Lady
F:http://www.vwml.org/record/CJS2/10/1667
S:Shepherd Eldridge of Shipley, Sussex
Z:transcribed by Alice Baillie
M:C
L:1/4
K:G
D | G A B B | c c2 c | B G A A | D3 D | G/G/ A B B | 
c c2 c | B G A F | G3 B/c/ | d2 B A | G G/G/ E B/d/ | 
c B A/G/ A | D3 D | B B B G | c c2 c | B G A A | G3 ||

